assets/img/photography-category-ico.svg

<svg width="100" height="100" viewBox="0 0 100 100" fill="none" xmlns="http://www.w3.org/2000/svg">
<path d="M81.25 81.25H18.75C17.0924 81.25 15.5027 80.5915 14.3306 79.4194C13.1585 78.2473 12.5 76.6576 12.5 75V31.25C12.5 29.5924 13.1585 28.0027 14.3306 26.8306C15.5027 25.6585 17.0924 25 18.75 25H31.25L37.5 15.625H62.5L68.75 25H81.25C82.9076 25 84.4973 25.6585 85.6694 26.8306C86.8415 28.0027 87.5 29.5924 87.5 31.25V75C87.5 76.6576 86.8415 78.2473 85.6694 79.4194C84.4973 80.5915 82.9076 81.25 81.25 81.25Z" stroke="white" stroke-width="3" stroke-linecap="round" stroke-linejoin="round"/>
<path d="M50 65.625C57.7665 65.625 64.0625 59.329 64.0625 51.5625C64.0625 43.796 57.7665 37.5 50 37.5C42.2335 37.5 35.9375 43.796 35.9375 51.5625C35.9375 59.329 42.2335 65.625 50 65.625Z" stroke="white" stroke-width="3" stroke-linecap="round" stroke-linejoin="round"/>
</svg>

<svg xmlns="http://www.w3.org/2000/svg" width="100" height="100" fill="none"><path stroke="#fff" stroke-linecap="round" stroke-linejoin="round" stroke-width="3" d="M81.25 81.25h-62.5A6.25 6.25 0 0 1 12.5 75V31.25A6.25 6.25 0 0 1 18.75 25h12.5l6.25-9.375h25L68.75 25h12.5a6.25 6.25 0 0 1 6.25 6.25V75a6.25 6.25 0 0 1-6.25 6.25Z"/><path stroke="#fff" stroke-linecap="round" stroke-linejoin="round" stroke-width="3" d="M50 65.625c7.767 0 14.063-6.296 14.063-14.063C64.063 43.797 57.766 37.5 50 37.5c-7.767 0-14.063 6.296-14.063 14.063 0 7.766 6.297 14.062 14.063 14.062Z"/></svg>
